!!!OTL: A B C D WENN ICH DICH SEH
!!!ARE: Europa, Mitteleuropa, Deutschland
!!!SCT: B0400
!!!YEM: Copyright 1995, estate of Helmut Schaffrath.
**kern
*ICvox
*Ivox
*M3/4
*k[b-]
*F:
=1
{4f
4e
4f
=2
2g
4r}
=3
{4g
4f
4g
=4
2a
4r}
=5
{4a
4a
4dd
=6
4.cc
8b-
4b-}
=7
{4g
4g
4cc
=8
4.b-
8a
4a}
=9
{4f
4e
4f
=10
4.ee
8dd
4dd}
=11
{8dd
8e
4e
4e
=12
2f
4r}
==
!!!AGN: Liebes - Lied, Liebes - Lust
!!!ONB: ESAC (Essen Associative Code) Database: BOEHME
!!!AMT: simple triple
!!!AIN: vox
!!!EED: Helmut Schaffrath
!!!EEV: 1.0
*-
